!!!COM: Robert Franz
!!!CNT: Deutscher
!!!TXO: Deutsche 
!!!OTL: Tra2ume
!!!OPS: Op. 43
!!!ONM: No. 1
!!!ONB: Original key: Ab Major
!!!LYR: W. Osterwald
!!!ENC: Brian Bice
!!!YOR: Vocal Album, G. Schirmer, Inc., 1907
!!!ODT: 1845/
!!NB: Vocal melody and text only encoded.
**kern	**silbe
*clefG2	*
*k[b-e-a-d-g-c-]	*
*M2/4	*
=1	=1
{8g-	{Lieb-
8a-	-lich
8b-	blu2h'n
8cc-	die
=2	=2
4dd-	Ba2u-
8b-	-me
16g-	vol-
16a-	-ler
=3	=3
4b-	Schmelz
4a-	und
=4	=4
[4g-	Duft,
8g-]}	|}
8r	.
=5	=5
{8g-	{gold'-
8a-	-ne
8b-	Fru2h-
8cc-	-lings-
=6	=6
4dd-	-tra2u-
8b-	-me
16g-	schwe-
16a-	-ben
=7	=7
8b-	klin-
8f	-gend
8dn	durch
8e-	die
=8	=8
(4f	Luft.
8B-)}	|}
8r	.
=10	=10
{8b-	{Mei-
8b-	-ne
8ee-	trunk'-
8ee-	-ne
=11	=11
4b-	See-
8cc-}	-le}
8r	.
=12	=12
{4f	{tra2u-
8g-	-mend
8e-	ver-
=13	=13
(4f	-gisst,
8b-)}	|}
8r	.
=14	=14
{8b-	{was
8b-	ihr
8ee-	e-
8ee-	-wig
=15	=15
4b-	feh-
8cc-}	-le,}
8r	.
=16	=16
8r	.
{16b-	{dass
16a-	sie
8g-	tief
8f	ver-
=17	=17
(8e-	-wun-
8b-	|
16a-	|
16g-)	|
(16f	-det
16e-)	|
=18	=18
4f}	ist.}
4r	.
=20	=20
{8g-	{Was
8a-	da-
8b-	-hin
8cc-	ge-
=21	=21
4dd-	-gan-
8b-	-gen,
16g-	kehrt
16a-	im
=22	=22
4b-	Traum
4a-	zu-
=23	=23
[4g-	-ru2ck,
8g-]}	|}
8r	.
=24	=24
{8g-	{und
8a-	mit
8b-	scheu-
8cc-	-em
=25	=25
4dd-	Ban-
8b-	-gen
16g-	hoff'
16a-	ich
=26	=26
8b-	wie-
8f	-der
8dn	neu-
8e-	-es
=27	=27
(4f	Glu2ck.
8B-)}	|}
8r	.
=29	=29
{8b-	{A-
8b-	-ber
8ee-	durch
8ee-	die
=30	=30
4b-	Bla2t-
8cc-}	-ter}
8r	.
=31	=31
{4f	{zit-
8g-	-tert
8e-	die
=32	=32
(4f	Luft,
8b-)}	|}
8r	.
=33	=33
{8b-	{und
8b-	bald
8ee-	nimmt
8ee-	ein
=34	=34
4b-	Wet-
8cc-}	-ter}
8r	.
=35	=35
8r	.
{16b-	{Traum
16a-	und
8g-	Blu2-
8b-	-then,
=36	=36
(8ee-	Schmelz
16dd-	|
16cc-	|
8b-)	|
8a-	und
=37	=37
4.b-}	Duft.}
8r	.
*-	*-
